X:50
T: Six in the Morning
C: BB
L: 1/8
Q: 1/8=320
M: 6/8
R: jig
K: G
D|"G"GFG "Am"AGA|"Em"Bed "G"B2A|"Em"BGE "D"DFA|"G"GBd "Am"ecA|
"G"GFG "Am"AGA|"G"Bgf "Em"edB|"Am"AEF "Em"GFE|"D"DFA "G"G2 :|
d|"G"gfg "Am"aga|"Em"bge "G"d^cd|"C"efg "G"dcB|"Am"Ace "D"dfa|
"G"gfg "Am"aga|"Em"bge "G"d^cd|"C"efg "G"dcB|"D"AFA "G"G2 :|
%%%%%%%%%%%%%%%%%%%%%%%%%%%%%%%%%%%%%%%%%%%
